X: 516
T: Italian Waltz
R: waltz
B: "Preston's Twenty Four Country Dances for the Year 1804", Tho. Preston, ed. p.218
F: http://imslp.org/wiki/24_Country_Dances_for_the_Year_1804_(Preston_(publisher),_Thomas)
N: The 1st strain has 12 bars.
M: 3/8
L: 1/16
K: A
|:\
A4B2 | cdcBA2 | d2B2e2 | cdcBA2 |\
e4f2 | gagfe2 | a2f2b2 | gagfe2 |\
a2g2f2 | e2d2c2 | d2B2e2 A6 :|
|:\
(GB)(eB)(eB) | (Ac)(ec)(ec) | (Ed)(ed)(ed) | (ce)(dc)(BA) |\
(GB)(eB).e.B | (Ac)(ec).e.c | d.c.e.d.c.B | A6 :|
% - - - - - - - - - - - - - - - - - - - - - - - - -
%%begintext align
%% 1st Lady set to the 2d Cu. & hands 3 round, 1st
%% Gentn. do the same, lead down the middle up
%% again foot it & cast off.
%%endtext

%%sep 1 1 500
